imagens/icones/google-tradutor.svg

<svg xmlns="http://www.w3.org/2000/svg" viewBox="0 0 24 24"><path fill="#4352B8" d="M11.6 19.45v.1q.75 2.2 1.45 4.45l4.15-4.5v-.05h-5.6Z"/><path fill="#666" d="M19.35 11.45H14.6L16.05 16q.15-.1.3-.25.35-.3.65-.65-1-1.2-1.45-2-.15-.25-.2-.45l-.05-.15h1.25v.1q.05.15.15.3.3.6 1 1.45.6-.65 1-1.35.45-.8.65-1.55m3.15 0h-2.05q-.1.85-.75 1.9-.5.85-1.3 1.8 1.15 1.2 2.9 2.8l-.75.8q-1.65-1.55-2.85-2.8-.4.45-.9.9-.2.2-.35.3l.7 2.3h.05v.05L13.05 24h9.4q.6 0 1.05-.4v-.05h.05l.05-.05q.4-.45.4-1.05V6.4q0-.65-.45-1.1-.5-.5-1.15-.5h-9.95l1.85 5.7h2.2V9H18v1.5h4.5v.95Z"/><path fill="#4285F4" d="M12.45 4.8 10.95 0H1.6Q.95 0 .45.45 0 .95 0 1.6v16.3q0 .65.45 1.1.5.5 1.15.5h10v-.05h5.55l-.7-2.3-.4-1.15-1.45-4.55-.3-.95-1.85-5.7m-2.2 4.25q.05.2.05.35.05.2.05.45 0 .8-.25 1.45-.25.7-.75 1.15-.5.5-1.15.8-.65.25-1.45.25-.75 0-1.45-.3t-1.2-.8q-.55-.5-.8-1.2-.3-.7-.3-1.45t.3-1.45q.25-.7.8-1.2.5-.5 1.2-.8Q6 6 6.75 6t1.4.25q.6.25 1.1.75l-1 .95q-.25-.25-.6-.4-.4-.2-.9-.2t-.95.2q-.4.15-.75.5-.3.35-.5.75-.15.45-.15.95 0 .5.15.95.2.4.5.75.35.35.75.5.45.2.95.2 1 0 1.65-.6.25-.25.4-.6.1-.3.15-.6h-2.2v-1.3h3.5Z"/></svg>

<svg xmlns="http://www.w3.org/2000/svg" viewBox="0 0 24 24"><path fill="#4352B8" d="M 11.6 19.45 L 11.6 19.5 11.6 19.55 Q 12.35 21.75 13.05 24 L 17.2 19.5 17.2 19.45 17.15 19.45 11.6 19.45 Z"/><path fill="#666666" d="M 19.35 11.45 L 14.6 11.45 16.05 16 Q 16.2 15.9 16.35 15.75 16.7 15.45 17 15.1 16 13.9 15.55 13.1 15.4 12.85 15.35 12.65 L 15.3 12.5 16.55 12.5 16.55 12.6 Q 16.6 12.75 16.7 12.9 17 13.5 17.7 14.35 18.3 13.7 18.7 13 19.15 12.2 19.35 11.45 M 22.5 11.45 L 20.45 11.45 Q 20.35 12.3 19.7 13.35 19.2 14.2 18.4 15.15 19.55 16.35 21.3 17.95 L 20.55 18.75 Q 18.9 17.2 17.7 15.95 17.3 16.4 16.8 16.85 16.6 17.05 16.45 17.15 L 17.15 19.45 17.2 19.45 17.2 19.5 13.05 24 22.45 24 Q 23.05 24 23.5 23.6 L 23.5 23.55 23.55 23.55 23.6 23.5 Q 24 23.05 24 22.45 L 24 6.4 Q 24 5.75 23.55 5.3 23.05 4.8 22.4 4.8 L 12.45 4.8 14.3 10.5 16.5 10.5 16.5 9 18 9 18 10.5 22.5 10.5 22.5 11.45 Z"/><path fill="#4285F4" d="M 12.45 4.8 L 10.95 0 1.6 0 Q 0.95 0 0.45 0.45 0 0.95 0 1.6 L 0 17.9 Q 0 18.55 0.45 19 0.95 19.5 1.6 19.5 L 11.6 19.5 11.6 19.45 17.15 19.45 16.45 17.15 16.05 16 14.6 11.45 14.3 10.5 12.45 4.8 M 10.25 9.05 Q 10.3 9.25 10.3 9.4 10.35 9.6 10.35 9.85 10.35 10.65 10.1 11.3 9.85 12 9.35 12.45 8.85 12.95 8.2 13.25 7.55 13.5 6.75 13.5 6 13.5 5.3 13.2 4.6 12.9 4.1 12.4 3.55 11.9 3.3 11.2 3 10.5 3 9.75 3 9 3.3 8.3 3.55 7.6 4.1 7.1 4.6 6.6 5.3 6.3 6 6 6.75 6 7.5 6 8.15 6.25 8.75 6.5 9.25 7 L 8.25 7.95 Q 8 7.7 7.65 7.55 7.25 7.35 6.75 7.35 6.25 7.35 5.8 7.55 5.4 7.7 5.05 8.05 4.75 8.4 4.55 8.8 4.4 9.25 4.4 9.75 4.4 10.25 4.55 10.7 4.75 11.1 5.05 11.45 5.4 11.8 5.8 11.95 6.25 12.15 6.75 12.15 7.75 12.15 8.4 11.55 8.65 11.3 8.8 10.95 8.9 10.65 8.95 10.35 L 6.75 10.35 6.75 9.05 10.25 9.05 Z"/></svg>
